X:938
T:Belfast Volunteers. JBut.933
T:Sussex Polka,aka. JBut.933
T:Aylmore's Polka,aka. JBut.933
B:John Buttrey MS, poss. Lincolnshire, early 19thC
S:https://buttreymilitarysocialtunes1800.wordpress.com/
Z:Village Music Project Quinton Cumbes 2019
M:C|
L:1/8
Q:1/2=80
K:G
GA|B2B2 Bdce|d2G2G3B|A2c2B2d2|edcB A2 GA|
B2B2 Bdce|d2G2G3B|A2e2 edcB|ecBA G2:|
|:Bc|d2d2d2ef|g2d2d2 ef|gfed edcB|cBAG A2 GA|
B2B2 Bdce|d2G2G2 ge|edcB dcBA|A3B G2:|

